docs/icons/github.svg

<svg width="128" height="128" viewBox="0 0 128 128" fill="none" xmlns="http://www.w3.org/2000/svg">
<path fill-rule="evenodd" clip-rule="evenodd" d="M64.0118 24C41.3528 24 23 42.3528 23 65.0118C23 83.1595 34.7396 98.4876 51.0418 103.922C53.0924 104.281 53.8613 103.05 53.8613 101.974C53.8613 101 53.8101 97.7699 53.8101 94.3352C43.5059 96.232 40.8401 91.8232 40.0199 89.5163C39.5585 88.3372 37.5592 84.6974 35.8162 83.7234C34.3808 82.9544 32.3302 81.0576 35.7649 81.0063C38.9946 80.9551 41.3015 83.9797 42.0705 85.21C45.7615 91.4131 51.657 89.6701 54.0151 88.5935C54.374 85.9277 55.4506 84.1335 56.6296 83.1082C47.5045 82.0829 37.9693 78.5456 37.9693 62.8586C37.9693 58.3986 39.5585 54.7076 42.173 51.8367C41.7629 50.8114 40.3275 46.6077 42.5831 40.9686C42.5831 40.9686 46.0178 39.8921 53.8613 45.1723C57.1423 44.2496 60.6283 43.7882 64.1143 43.7882C67.6003 43.7882 71.0863 44.2496 74.3672 45.1723C82.2107 39.8408 85.6455 40.9686 85.6455 40.9686C87.9011 46.6077 86.4657 50.8114 86.0556 51.8367C88.6701 54.7076 90.2593 58.3473 90.2593 62.8586C90.2593 78.5969 80.6728 82.0829 71.5477 83.1082C73.0343 84.3898 74.316 86.8505 74.316 90.6954C74.316 96.1807 74.2647 100.589 74.2647 101.974C74.2647 103.05 75.0337 104.332 77.0843 103.922C85.2258 101.173 92.3005 95.9406 97.3125 88.9607C102.324 81.9807 105.021 73.6048 105.024 65.0118C105.024 42.3528 86.6707 24 64.0118 24Z" fill="white"/>
</svg>

<svg xmlns="http://www.w3.org/2000/svg" width="128" height="128" fill="none" xmlns:v="https://vecta.io/nano"><path fill-rule="evenodd" d="M64.012 24C41.353 24 23 42.353 23 65.012c0 18.148 11.74 33.476 28.042 38.91 2.051.359 2.819-.872 2.819-1.948l-.051-7.639c-10.304 1.897-12.97-2.512-13.79-4.819-.461-1.179-2.461-4.819-4.204-5.793-1.435-.769-3.486-2.666-.051-2.717 3.23-.051 5.537 2.973 6.306 4.204 3.691 6.203 9.586 4.46 11.945 3.384.359-2.666 1.436-4.46 2.615-5.485-9.125-1.025-18.66-4.563-18.66-20.25 0-4.46 1.589-8.151 4.204-11.022-.41-1.025-1.846-5.229.41-10.868 0 0 3.435-1.077 11.278 4.204 3.281-.923 6.767-1.384 10.253-1.384s6.972.461 10.253 1.384c7.844-5.331 11.278-4.204 11.278-4.204 2.256 5.639.82 9.843.41 10.868 2.615 2.871 4.204 6.511 4.204 11.022 0 15.738-9.586 19.224-18.712 20.25 1.487 1.282 2.768 3.742 2.768 7.587l-.051 11.279c0 1.076.769 2.358 2.82 1.948 8.142-2.749 15.216-7.981 20.228-14.961a41.09 41.09 0 0 0 7.712-23.949C105.024 42.353 86.671 24 64.012 24z" fill="#fff"/></svg>
